X:1
T:No. 10 Bacchanalia
T:No. 10 Bacchanalia
T:From "Poetic Tone Pictures", Op. 85
T:Anton Dvořák
C:Anton Dvořák
%%score { ( 1 4 ) | ( 2 3 ) }
L:1/8
Q:1/4=250
M:3/4
K:Eb
V:1 bass nm="Piano" snm="Pno."
V:4 bass 
V:2 bass 
V:3 bass 
V:1
"^Vivacissimo"!pp! .C,2 .G,,2 .C,2 | .G,,2 .C,2 .G,,2 |!pp! C,D, E,2 .D,2 | C,4 G,,2 | %4
 .C,2 .G,,2 .C,2 |!pp! .G,,2!<(! .C,2 .G,,2 | C,D,!<)!!p! E,2!pp! .F,2 | G,6 | %8
{F,G,} A,2!>(! z A, A,2!>)! |!pp! .G,2 .F,2 .E,2 | .F,2 .E,2 .D,2 | .E,2 .D,2 .C,2 | %12
{_D,E,} F,2!>(! z F, F,2!>)! |!pp! .E,2 ._D,2 .C,2 | ._D,2 .C,2[Q:1/4=180] .G,,2 | .C,2 z2 z2 | %16
[K:treble]!pp![Q:1/4=250] .[Cc]2 .G2 .[Cc]2 | .G2 .[Cc]2 .G2 |!<(! [Cc]d!<)!!mp! e2!pp! d2 | %19
 c4 G2 | .[Cc]2 .G2 .[Cc]2 | .G2 .[Cc]2 .G2 |!<(! cd!<)!!mp! e2!pp! f2 | g6 |{fg} a2 z!p! a a2 | %25
 .g2 .=f2 .e2 | .f2 .e2 .d2 | .e2 .d2 c z |{_de} f2 z!>(! f f2!>)! |!p! .e2 ._d2 .c2 | %30
 ._d2 .c2 .=B2 | .[Ec]2 z4 |!ff!{/a-} [aa']2 z [aa'] [aa']2 | .[gg']2 .[ff']2 .[ee']2 | %34
 .[ff']2 .[ee']2 .[dd']2 | .[ee']2 .[dd']2 .[cc']2 | [ff']2 z [ff'] [ff']2 | %37
 .[ee']2 .[_d_d']2 .[cc']2 |!ff! .[_dfa_d']2 .[ceac']2 .[=B=dg=b]2 | .[cegc']2 z2 !fermata!z2 | %40
!p!{/F} f2 z f f2 |{/G-} .[Ge]2 .d2 .c2 |{/_c} a2 z a a2 |{/B-} .[Bg]2 .f2 .e2 | %44
{/__e} _c'2 z c' c'2 |{/_d-} .[db]2 .a2 ._g2 |{/f} __e'2 z e' e'2 | _d'6 |!pp! f'2 e'2 _d'2 | %49
 _d'6 | f'2 e'2 _d'2 | _d'6 |!f! !>![_g_g']2 z [gg'] [gg']2 | .[ff']2 .[ee']2 .[=d=d']2 | %54
 [_f_f']2 z .[ff'] .[ff']2 | .[ee']2 .[_d_d']2 .[cc']2 | [__e__e']2 z .[ee'] .[ee']2 | %57
 !>!.[_d_d']2 .[_c_c']2 .[Bb]2 | !>!.[_d_d']2 .[_c_c']2 .[Bb]2 | %59
[Q:1/4=180]!<(! !>![=d=d']2 [=c=c']2 [=B=b]2!<)! |[Q:1/4=250]!ff! !>![aa']2 g'f'e'd' | %61
 !>!g'!mf!f'!<(!e'd'c'=b | agfedc | =BAGFED!<)! |!ff!{/C} !^!c2 .G2 !^![Cc]2 | .G2 !^![Cc]2 .G2 | %66
 [Cc]d .[Ee]2 .[Dd]2 | !^![Cc]4 [G,G]2 | !^![cc']2 .g2 !^![cc']2 | .g2 !^![cc']2 .g2 | %70
 [cc']d' .[ee']2 .[=f=f']2 | !^![gg']6 | !>!c''c'g'c' !>!c''c' | _g'c' !>!b'bf'b | %74
 !>!b'b_f'b !>!a'a | e'a !>!a'ae'a | !>!a'ae'a !>!g'g | e'g !>!g'gd'g | !>!c'cgc !>!c'c | %79
 _gc !>!bBfB | !>!bB_fB !>!aA | eA !>!aAeA | !>!aAeA !>!gG | eG !>!gGdG | !>!c'cgc !>!gG | %85
 cG !>!cCGC | !>!GG,CG,[K:bass] !>!CC, | G,C, !>!G,G,,C,G,, | !>!!fermata!C,6 | %89
[K:treble]{=Bd} a2 z!mp! .a .a2 |!>(! !arpeggio![ceg]2 .e2 .c2 | [=Bdf]2 z2 z2 | %92
 [ce]2 z2!>)!!p! z2 |{=B,D} A2 z!mp! .A .A2 | !arpeggio![CEG]2 .E2 .C2 | %95
!p! !arpeggio![=B,DF]2!>(! z2 z2 | [CE]2 z2 z2!>)! |!pp!{DE} F2 z .F .F2 | .E2 .D2 .C2 | %99
[K:bass]!>(! .G,2 .E,2 .D,2!>)! |!ppp! !fermata!C,6 |[K:treble] c'gc'^fge | gdece=B | cGc^FGE | %104
 GDECE=B, |[K:bass] CG,C^F,G,E, | G,D,E,C,E,=B,, | C,2 z2 z2 | .[D,F,A,]2 z2 z2 | %109
 .[C,E,G,]2 z2 z2 | .[C,E,G,]2 z2 z2 | z C,G,C[K:treble]CG | c cgc' c'e' | c'' z z4 | %114
 !fermata!z6 ||[K:C] z G!p!!>(!xGxG!>)! |!p! .G2 .A2 .B2 | z c!p!!>(!xcxc!>)! |!p! .c2 .d2 .e2 | %119
 (3f!mp!gf!>(! (3efe (3ded | (3efe (3ded (3cdc | (3ded (3cdc (3BcB!>)! |!p! G6 | %123
 z [Gg]!p!!>(!x[Gg]x[Gg]!>)! |!p! .[Gg]2 .[Aa]2 .[Bb]2 | z [cc']!p!!>(!x[cc']x[cc']!>)! | %126
!p! .[cc']2 .[dd']2 .[ee']2 |{/f} (3f'g'f' (3e'f'e' (3d'e'd' | (3e'f'e' (3d'e'd' (3c'd'c' | %129
 (3d'e'd' (3c'd'c' (3bc'b | g6 | z [_Beg]!p!!>(!x[Beg]x[Beg]!>)! |!p! .f2 .e2 .d2 | %133
 z [_Beg]!p!!>(!x[Beg]x[Beg]!>)! |!p! .f2 .e2 .d2 | z [_Adf]!p!!>(!x[Adf]x[Adf]!>)! | %136
!p! .e2 .d2 .c2 | z [_Ac_e]!p!!<(!x[Ace]x[Ace] | .[_A_e]2 .[Ad]2 .[Ac]2 | .[_A_e]2 .[Ad]2 .[Ac]2 | %140
 .[_A_e]2 .[Ad]2 .[Ac]2!<)! | z [Gg]!p!!<(!x[Gg]x[Gg] | .[Gg]2 .[Aa]2 .[Bb]2 | %143
 z [cc']!p!x[cc']x[cc'] | .[cc']2 .[dd']2!<)!!f! .[ee']2 |!f!{/f} (3f'g'f' (3e'f'e' (3d'e'd' | %146
!<(! (3e'f'e' (3d'e'd' (3c'd'c' | (3d'e'd' (3c'd'c' (3bc'b | g6!<)! | %149
!8va(! z [_be'g']!mf!x!<(![be'g']x[be'g'] | .f'2 .e'2 .d'2!<)! | %151
 z [_be'g']!mf!x!<(![be'g']x[be'g'] | .f'2 .e'2 .d'2!8va)!!<)! | z [_Adf]!mp!x!>(![Adf]x[Adf] | %154
 .e2 .d2 .c2!>)! | z [_ac'_e']!mp!x!<(![ac'e']x[ac'e'] | !>!.[_e_a_e']2 .[dad']2 .[cac']2 | %157
 !>!.[_e_a_e']2 .[dad']2 .[cac']2 | !>!.[_e_a_e']2 .[dad']2 .[cac']2!<)! |!ff! z [Gg]xgg'g | %160
!8va(! [gg']2 [=a=a']2 [=b=b']2!8va)! | z [cc']zc'c''c' |!8va(! .[c'c'']2 .[d'd'']2 .[e'e'']2 | %163
 !>![f'f'']g'' [e'e'']f'' [d'd'']e'' | [e'e'']f'' [d'd'']e'' [c'c'']d'' | %165
 [d'd'']e'' [c'c'']d'' [bb']c''!8va)! |!f! .[Gg]2 .[cc']2 z2 |!mf! (3fgf (3_efe (3ded | %168
 (3_efe (3ded (3cdc |!>(! !arpeggio![=Bdf]2 z2 z2!>)! |!p! .[c_e]2 .d2 .c2 | %171
 (3FGF!>(! (3_EFE (3DED | (3_EFE (3DED (3CDC!>)! |!pp!{[B,D]_E} F2 z2 z2 | .[C_E]2 .D2 .C2 | %175
!ff! [Ff]2 z [Ff] [Ff]2 | .[_E_e]2 .[Dd]2 .[Cc]2 | %177
[Q:1/4=140]"^rit.  e  pesante" !^![G,G]2 !^!_E2 !^!D2 | !^!!fermata!C6 || %179
[K:Ab][Q:1/4=220]!p! [CE]6 | [CF]4 [DA]2 | [CA]6 |!pp! =d'e'a'e'=bc' | e'c'[Q:1/4=190]gac'a | %184
!p![Q:1/4=220]!<(! [CE]6 | [CF]4!<)!!mp! [DFd]2 |!p!!>(! !arpeggio![CAc]6!>)! |!pp! =d'e'a'e'=bc' | %188
 e'c'gac'a |!p!!<(! [CE]6 | [CF]4!<)!!mp! [DFd]2 |!f! !arpeggio![CAe]6 |!p! =d'e'a'e'=bc' | %193
 e'c'gac'a |!pp! [CE]6 | B4 A2 | [CEA]6 | =d'e'a'e'=bc' | e'c'gac'a ||[K:E]!f! !>![Be]6 | %200
 !>![Bdf]4 [Beg]2 | !>![Beg]6 |!8va(! ^a'b'e''b'^^f'g' | b'g'd'e'g'e'!8va)! | !>![Be]6 | %205
 !>![cec']4 [cea]2 | !>![egb]6 |!8va(! ^a'b'e''b'^^f'g' | b'g'd'e'g'e'!8va)! | !>![Be]6 | %210
 !>![Bdf]4 [Begb]2 | !>![Begb]6 |!8va(! ^a'b'e''b'^^f'g' | b'g'd'e'g'e'!8va)! | !>![Be]6 | %215
 !>![ceg]4 [cegc']2 | !>![d^^f^a]6 ||[K:Ab]!8va(! =d''e''g''e''=a'b' | e''b'^f'g'b'g'!8va)! | %219
 !>![egb]6 | !>![dfbd']4 [Begb]2 | !>![Begb]6 |!8va(! =d''e''g''e''=a'b' | e''b'^f'g'b'g'!8va)! | %224
 !>![egb]6 | !>![dfbd']4 [cegc']2 | !>![Begb]6 |!8va(! =d''e''g''e''=a'b' | e''b'^f'g'b'g'!8va)! | %229
 !>![egb]6 | [ege']2 [dfd']2 [cfa]2 | [egb]6 |!8va(! =d''e''g''e''=a'b' | e''b'^f'g'b'g'!8va)! | %234
!ff![Q:1/4=190]"^grandioso" [CE]6 | [F,A,CF]4 [A,DFA]2 | [A,CEA]6 |!8va(! =d''e''[a'a'']e''=b'c'' | %238
 [e'e'']c''g'a'[c'c'']a'!8va)! | [A,CE]6 | [A,CF]4 [DFAd]2 | [CEAc]6 | %242
!8va(! =d''e''[a'a'']e''=b'c'' | [e'e'']c''g'a'[c'c'']a'!8va)! | [A,CE]6 | [A,CF]4 [DFAd]2 | %246
 !arpeggio![CAe]6 |!8va(! =d''e''[a'a'']e''=b'c'' | [e'e'']c''g'a'[c'c'']a'!8va)! | [A,CE]6 | %250
 B4 A2 | [CEA]6 |[Q:1/4=200]!8va(! =d''e''[a'a'']e''=b'c'' | %253
[Q:1/4=210] [e'e'']c''g'a'[c'c'']a'!8va)! |[Q:1/4=230] (=d'e')[aa']e' (=bc' | %255
[Q:1/4=240] [ee']c') (ga[cc']a) ||[K:Eb][Q:1/4=250]!ff! !>![cc']2 g2 !>![cc']2 | g2 !>![cc']2 g2 | %258
 [cc']d' [ee']2 [dd']2 | !>![cc']4 [Gg]2 | !>![cc']2 g2 !>![cc']2 | g2 !>![cc']2 g2 | %262
 [cc']d' [ee']2 [=f=f']2 | !>![gg']6 |{f'g'} [aa']2 z!ff! a' a'2 |{/g} g'2 f'2 e'2 | %266
"_dim."{/f} f'2 e'2 _d'2 |{/e} e'2 _d'2 c'2 |{/f} f'2 z f' f'2 | e'2 _d'2 c'2 | %270
 [_d_d']e [cc']e [=B=b]f | [cec']2 z2 z2 |!mp!{/F} f2 z f f2 | [^Fe]G .d2 .c2 | %274
!>(!{/_c} a2 z a a2 | [=Ag]B!>)!!p! .f2 .e2 |!mp!{/=d} _c'2 z!>(! c' c'2 | [cb]_d .a2 ._g2!>)! | %278
!p! __e'2 z e' e'2 |!pp! [_g_d']6 | f'2 e'2 _d'2 | _d'6 | f'2 e'2 _d'2 | _d'6 | %284
!f! !>![_g_g']2 z .[gg'] .[gg']2 | .[ff']2 .[ee']2 .[=d=d']2 | !>![_f_f']2 z .[ff'] .[ff']2 | %287
 .[ee']2 .[_d_d']2 .[cc']2 | !>![__e__e']2 z .[ee'] .[ee']2 | .[_d_d']2 .[_c_c']2 .[Bb]2 | %290
 !>!.[_d_d']2 .[_c_c']2 .[Bb]2 |!<(! !>![=d=d']2 [=c=c']2 [=B=b]2!<)! |!ff! !>![aa']2 g'^f'=f'e' | %293
 !>!g'!mf!f'!<(!e'd'c'=b | agfedc | =BAGFED!<)! |!ff! !>![Cc]2 G2 !>![Cc]2 | G2 [Cc]2 G2 | %298
!<(! !>![Cc]!>!d !>![Ee]2!<)! [Dd]2 | !>![Cc]4 G2 | !^![cc']2 g2 !^![cc']2 | g2 !^![cc']2 g2 | %302
!<(! !>![cc']!>!d' !>![ee']2!<)! [ff']2 | !>![gg']6 | !>!c''c'g'c' !>!c''c' | _g'c' !>!b'bf'b | %306
 !>!b'b_f'b !>!a'a | e'a !>!a'ae'a | !>!a'ae'a !>!g'g | e'g !>!g'gd'g | !>!c'cgc !>!c'c | %311
 _gc !>!bBfB | !>!bB_fB !>!aA | eA !>!aAeA | !>!aAeA !>!gG | eG !>!gGdG | !^!c'!ff!cgc !^!g!ff!G | %317
 dG !^!c!ff!CGC | !^!G!ff!G,DG,[K:bass] !^!C!ff!C, | G,C, !^!G,!ff!G,,D,G,, | C,2 z2 z2 | %321
[K:treble]!ff! [G=Bdg]2 z2 z2 |!fff!!8va(! !fermata![c'e'g'c'']6!8va)! |] %323
V:2
 .C,,2 .G,,,2 .C,,2 | .G,,,2 .C,,2 .G,,,2 | C,,D,, E,,2 .D,,2 | C,,4 G,,,2 | .C,,2 .G,,,2 .C,,2 | %5
 .G,,,2 .C,,2 .G,,,2 | C,,D,, E,,2 .F,,2 | G,,6 |{F,,G,,} A,,2 z A,, A,,2 | .G,,2 .F,,2 .E,,2 | %10
 .F,,2 .E,,2 .D,,2 | .E,,2 .D,,2 .C,,2 |{_D,,E,,} F,,2 z F,, F,,2 | .E,,2 ._D,,2 .C,,2 | %14
 ._D,,2 .C,,2 .G,,,2 | .C,,2 z2 z2 |[K:treble]!pp!!ped! E=DEDED | EDEDED!ped-up! | %18
!ped! EDE!ped-up!D!ped!ED | EDEDED!ped-up! | E!ped!DEDED | EDEDED!ped-up! | %22
!ped! EDE!ped-up!D!ped!ED | EDEDEC!ped-up! |!pp!!ped! !>!G,D=EF=B z!ped-up! | %25
!ped! =A,_E^FGc z!ped-up! |!ped! =B,=FGAd z!ped-up! |!ped! C^FGce z!ped-up! | %28
!ped! !>!F,C_DFA z!ped-up! |!ped! ^F,C_DEA z!ped-up! | %30
 G,E[I:staff -1]^FG[I:staff +1][K:bass] [G,=D]2 | .C2 .C,2 z2 | %32
!f!!ped! [B,,,B,,]2 [F,A,B,D]2 z2!ped-up! |!ped! [E,,E,]2 [G,B,E]2 z2!ped-up! | %34
!ped! [G,,,G,,]2 [F,G,=B,]2 z2!ped-up! |!ped! [C,,C,]2 [E,G,C]2 z2!ped-up! | %36
!ped! [_D,,_D,]2 [F,A,]2 z2!ped-up! |!ped! [A,,,A,,]2 [E,A,C]2 z2!ped-up! | %38
 .[F,,F,]2 .[^F,,^F,]2 .[G,,G,]2 | .[C,,C,]2 z2 z2 |!pp!!ped! [D,A,C]2 z2 z2!ped-up! | %41
!ped! [E,C]2 z2 z2!ped-up! |!ped! [F,D]2 z2 z2!ped-up! |!ped! [G,E]2 z2 z2!ped-up! | %44
!ped! [A,F]2 z2 z2!ped-up! |!ped! [B,_G]2 z2 z2!ped-up! |[K:treble]!ped! [_CA]2!>(! z2 z2!ped-up! | %47
 B6!>)! | [A_c]6 |!ped! [_GB]3 x x2!ped-up! | [A_c]6 |!ped! [_GB]3 x x2!ped-up! | %52
!ped! !>!=a!mf!e=cF z2!ped-up! |!ped! !>!_c_A=FB, z2!ped-up! |!ped! !>!=g_dBE z2!ped-up! | %55
!ped! !>!__B_GEA, z2!ped-up! |!ped! !>!=f_cA_D z2!ped-up! |!ped! !>!B_F_D_G, z2!ped-up! | %58
!ped! !>!B=E_D=G, z2!ped-up! |!ped! !>!=B=F=D=G, z2!ped-up! | %60
!ped! !arpeggio!!>![G,F=Bd]2 gfed!ped-up! | !>!gfedc=B | AGFEDC |[K:bass] =B,A,G,F,E,D, | %64
!f!!ped! C,,^F,,G,,E,C,,F,, | G,,E,C,,^F,,G,,E,!ped-up! |!ped! C,,^F,,G,,E,C,,F,, | %67
 G,,E,C,,^F,,G,,E,!ped-up! |!ped! C,^F,G,EC,F, | G,EC,^F,G,E!ped-up! |!ped! C,^F,G,EC,F, | %71
 G,EC,^F,G,E!ped-up! |[K:treble]!ped! C^FGe!ped-up!!ped! =A,D | Ec!ped-up!!ped! B,=EFd!ped-up! | %74
!ped! G,C_DB!ped-up!!ped! A,=D | Ec!ped-up!!ped! F,=B,CE!ped-up! |!ped! ^F,=B,CE!ped-up!!ped! G,C | %77
 EG!ped-up!!ped! G,=B,DG!ped-up! |[K:bass]!ped! C,^F,G,E!ped-up!!ped! =A,,D, | %79
 E,C!ped-up!!ped! B,,=E,F,D!ped-up! |!ped! G,,C,_D,B,!ped-up!!ped! A,,=D, | %81
 E,C!ped-up!!ped! F,,=B,,C,E,!ped-up! |!ped! ^F,,=B,,C,E,!ped-up!!ped! G,,C, | %83
 E,G,!ped-up!!ped! G,,=B,,D,G,!ped-up! |!ped! [C,,C,]2 z z GG, | CG, CC,G,C, | %86
 !>!G,G,,C,G,, !>!C,C,, | G,,C,, !>!G,,G,,,C,,G,,, | !>![C,,,C,,]6!ped-up! |[K:treble] F2 z2 z2 | %90
 G2 z2 z2 | !>!A2 z .A .A2 | .G2 .E2 .C2 |[K:bass] F,2 z2 z2 | G,2 z2 z2 | !>!A,2 z .A, .A,2 | %96
 .G,2 .E,2 .C,2 |{D,E,} F,2 z .F, .F,2 | .E,2 .D,2 .C,2 | .G,,2 .E,,2 .D,,2 |!ped! [C,,,C,,]6- | %101
 [C,,,C,,]6- | [C,,,C,,]6- | [C,,,C,,]6- | [C,,,C,,]6- | [C,,,C,,]6- | [C,,,C,,]6!ped-up! | %107
!ped! C,,=B,,,C,,B,,,C,,B,,, | C,,=B,,,C,,B,,,C,,B,,, | C,,=B,,,C,,B,,,C,,B,,, | %110
 C,,=B,,,C,,B,,,C,,B,,,!ped-up! |!ped! C,,6- | C,,6- | C,,2!ped-up! z2 z2 | z6 || %115
[K:C]!p! [CE]x[I:staff -1]G[I:staff +1]x[I:staff -1]G[I:staff +1] x | [B,E]2 z2 z2 | %117
!p! [_B,E]x[I:staff -1]c[I:staff +1]x[I:staff -1]c[I:staff +1] x | [A,E]2 z2 z2 | %119
 .[_A,C]2 .[G,C]2 .[F,C]2 | .[G,C]2 .[F,C]2 .[E,C]2 | .[F,C]2 .[E,C]2 .[D,C]2 | B,2 C4 | %123
!p! [CE]x[I:staff -1]G[I:staff +1]x[I:staff -1]G[I:staff +1] x | [B,E]2 z2 z2 | %125
!p! [_B,E]x[I:staff -1]c[I:staff +1]x[I:staff -1]c[I:staff +1] x | [A,E]2 z2 z2 | %127
 .[_A,C]2 .[G,C]2 .[F,C]2 | .[G,C]2 .[F,C]2 .[E,C]2 | .[F,C]2 .[E,C]2 .[D,C]2 | B,2 C4 | %131
 [^CE]x[I:staff -1]A[I:staff +1]x[I:staff -1]A[I:staff +1] x | [DA]2 z2 z2 | %133
 [^CE]x[I:staff -1]A[I:staff +1]x[I:staff -1]A[I:staff +1] x | [DA]2 z2 z2 | %135
 [B,D]x[I:staff -1]G[I:staff +1]x[I:staff -1]G[I:staff +1] x | [CG]2 z2 z2 | %137
 [^F,C_E]x[I:staff -1]G[I:staff +1]x[I:staff -1]G[I:staff +1] x | .C2 .D2 ._E2 | .C2 .D2 ._E2 | %140
 .C2 .D2 ._E2 |!mf!!ped! [C=E]x[I:staff -1]G[I:staff +1]x[I:staff -1]G[I:staff +1] x!ped-up! | %142
 [B,E]2 z2 z2 | [_B,E]x[I:staff -1]c[I:staff +1]x[I:staff -1]c[I:staff +1] x | [A,E]2 z2 z2 | %145
 .[_A,C]2 .[G,C]2 .[F,C]2 | .[G,C]2 .[F,C]2 .[E,C]2 | .[F,C]2 .[E,C]2 .[D,C]2 | %148
 .[E,B,]2 .[E,C]2 z2 | %149
[K:treble]!ped! [^ce]!8va(!x[I:staff -1]a[I:staff +1]x[I:staff -1]a[I:staff +1] x!ped-up!!8va)! | %150
 [da]2 z2 z2 | %151
!ped! [^ce]!8va(!x[I:staff -1]a[I:staff +1]x[I:staff -1]a[I:staff +1] x!ped-up!!8va)! | %152
 [DA]2 z2 z2 |!ped! [Bd]x[I:staff -1]G[I:staff +1]x[I:staff -1]G[I:staff +1] x!ped-up! | %154
 [CG]2 z2 z2 |!ped! [^F,C_E]x[I:staff -1]g[I:staff +1]x[I:staff -1]g[I:staff +1] x!ped-up! | %156
!ped! .[^Fc]2 .[Fd]2 .[F_e]2 | .[^Fc]2 .[Fd]2 .[F_e]2 | .[=Fc]2 .[Fd]2 .[F_e]2!ped-up! | %159
[K:bass]!ped! !arpeggio![C,G,=E]x[I:staff -1]G[I:staff +1] x x2!ped-up! | %160
!ped! !arpeggio![=B,,G,E]2 z2 z2!ped-up! | %161
!ped! !arpeggio![_B,,E,C]x[I:staff -1]c[I:staff +1] x x2!ped-up! | %162
!ped! !arpeggio![A,,E,C]2 z2 z2!ped-up! |!mf! !>!.[_A,,C,]2 .[G,,C,]2 .[F,,C,]2 | %164
 .[G,,C,]2 .[F,,C,]2 .[E,,C,]2 | .[F,,C,]2 .[E,,C,]2 .[D,,C,]2 | .[E,,B,,]2 .[C,,C,]2 z2 | %167
 [G,B,D]2 z4 | [G,C_E]2 z4 |[K:treble] !arpeggio![G,_A]2 z A A2 | .[G,G]2 .F2 ._E2 | %171
[K:bass] [G,,B,,D,]2 z2 z2 | [G,,C,_E,]2 z4 | _A,2 z A, A,2 | .G,2 .F,2 ._E,2 | %175
 [F,,F,]2 z [F,,F,] [F,,F,]2 | .[_E,,_E,]2 .[D,,D,]2 .[C,,C,]2 | x2 !^!_E,2 !^!D,2 | !^!C,6 || %179
[K:Ab] A,6 | [F,A,]4 [D,F,]2 |!ped! [A,,E,]6 |[K:treble] =b2 c'2 g2 | a2 =d2 e2!ped-up! | %184
[K:bass] A,6 | [F,A,]4 [D,A,]2 |!ped! !arpeggio![A,,E,A,]6 |[K:treble] =b2 c'2 g2 | %188
 a2 =d2 e2!ped-up! |[K:bass] A,6 | [F,A,]4 [D,A,]2 |!ped! !arpeggio![A,,E,]6 | %192
[K:treble] =b2 c'2 g2 | a2 =d2 e2!ped-up! |[K:bass] A,6 |!ped! G,4 A,2!ped-up! |!ped! [A,,E,A,]6 | %197
[K:treble] =b2 c'2 g2 | a2 =d2 e2!ped-up! ||[K:E] !>![G,B,E]6 | !>![B,F]4 [EG]2 |!ped! !>![EG]6 | %202
 .^^f'2 .g'2 .d'2 | .e'2 .^a2 .b2!ped-up! | !>![G,B,E]6 | !>![A,EA]4 [CEA]2 |!ped! !>![EGB]6 | %207
 .^^f'2 .g'2 .d'2 | .e'2 .^a2 .b2!ped-up! | !>![G,B,E]6 | !>![B,DF]4 [EG]2 |!ped! !>![EG]6 | %212
 .^^f'2 .g'2 .d'2 | .e'2 .^a2 .b2!ped-up! | !>![G,B,E]6 | !>![CEG]4 [^A,CEG]2 | %216
!ped! !>![D^^F^A]6 ||[K:Ab]!8va(! =a'2 b'2 ^f'2 | g'2 =d'2 e'2!ped-up!!8va)! | !>![EGB]6 | %220
 !>![B,FB]4 [EG]2 |!ped! !>![EG]6 |!8va(! =a'2 b'2 ^f'2 | g'2 =d'2 e'2!ped-up!!8va)! | !>![EGB]6 | %225
 !>![B,FB]4 [CEG]2 |!ped! !>![EG]6 |!8va(! =a'2 b'2 ^f'2 | g'2 =d'2 e'2!ped-up!!8va)! | !>![EGB]6 | %230
 [CGc]2 [DA]2 [FA]2 |!ped! [EGB]6 |!8va(! =a'2 b'2 ^f'2 | g'2 =d'2 e'2!ped-up!!8va)! | %234
[K:bass] [A,,E,A,]6 | [F,,C,]4 [D,,A,,D,]2 |!ped! !arpeggio![A,,,A,,E,]6!ped-up! | %237
[K:treble]"^marcato"!ped! !^![=B=b]2 !^![cc']2 !^![Gg]2 | !^![Aa]2 !^![=D=d]2 !^![Ee]2!ped-up! | %239
[K:bass] [A,,E,]6 | [F,,C,F,]4 !arpeggio![D,,D,F,]2 |!ped! !arpeggio![A,,,A,,E,]6!ped-up! | %242
[K:treble]!ped! !^![=B=b]2 !^![cc']2 !^![Gg]2 | !^![Aa]2 !^![=D=d]2 !^![Ee]2!ped-up! | %244
[K:bass] [A,,E,]6 | [F,,C,F,]4 !arpeggio![D,,D,F,]2 |!ped! !arpeggio![A,,,A,,C,A,]6!ped-up! | %247
[K:treble]!ped! !^![=B=b]2 !^![cc']2 !^![Gg]2 | !^![Aa]2 !^![=D=d]2 !^![Ee]2!ped-up! | %249
[K:bass] [A,,E,]6 |!ped! G,4 A,2!ped-up! |!ped! !arpeggio![A,,,A,,E,]6!ped-up! | %252
[K:treble]!ped! !^![=B=b]2 !^![cc']2 !^![Gg]2 | !^![Aa]2 !^![=D=d]2 !^![Ee]2!ped-up! | %254
!ped! !^![=B,=B]2 !^![Cc]2!ped-up!!ped! !^![G,G]2 | %255
 !^![A,A]2!ped-up!!ped! !^![=D,=D]2 !^![E,E]2!ped-up! ||[K:Eb][K:bass]!mf!!ped! C,^F,G,E C,F, | %257
 G,E C,^F,G,E!ped-up! |!ped! C,^F,G,E C,F, | G,E C,^F,G,E!ped-up! |[K:treble]!ped! C^FGe CF | %261
 Ge C^FGe!ped-up! |!ped! C^FGe CF | Ge C^FGe!ped-up! |!ped! _B,=FAdf z!ped-up! | %265
!ped! CGceg z!ped-up! |!ped!"_dim." _DA_dfa z!ped-up! |!ped! A,EAce z!ped-up! | %268
!ped! F,A,_DFA z!ped-up! |!ped! ^F,EAce z!ped-up! | G,EG G,=DF | %271
[K:bass]!ped! !arpeggio![C,G,E]2 z2 z2!ped-up! |!p! !arpeggio![D,A,C]2 z2 z2 | %273
 !arpeggio![E,C]2 z2 z2 | !arpeggio![F,D]2 z2 z2 | [G,E]2 z2 z2 | !arpeggio![A,F]2 z2 z2 | %277
 [B,_G]2 z2 z2 |[K:treble] !arpeggio![_CA]2 z2 z2 |!ped! [_GB]6!ped-up! | [_DA_c]6 | %281
!ped! [_GB]3 x x2!ped-up! | [A_c]6 |!ped! [_GB]3 x x2!ped-up! |!ped! =aecF z2!ped-up! | %285
!ped! _cAFB, z2!ped-up! |!ped! =g_dBE z2!ped-up! |!ped! __B_GEA, z2!ped-up! | %288
!ped! =f_cA_D z2!ped-up! |!ped! B_F_D_G, z2!ped-up! |!ped! !>!B=E_D=G, z2!ped-up! | %291
!ped! !>!=B=F=D=G, z2!ped-up! |!ped! !arpeggio!!>![G,DF=B]2 g^f=fe!ped-up! | !>!gfedc=B | AGFEDC | %295
[K:bass] =B,A,G,F,E,D, |!ped! C,,!f!^F,,G,,E, C,,F,, | G,,E, C,,^F,,G,,E,!ped-up! | %298
!ped! C,,^F,,G,,E, C,,F,, | G,,E, C,,^F,,G,,E,!ped-up! |!ped! C,^F,G,E C,F, | %301
 G,E C,^F,G,E!ped-up! |!ped! C,^F,G,E C,F, | G,E C,^F,G,E!ped-up! | %304
[K:treble]!ped! C^FGe!ped-up!!ped! =A,D | Ec!ped-up!!ped! B,=E=Fd!ped-up! | %306
!ped! G,C_DB!ped-up!!ped! A,=D | Ec!ped-up!!ped! F,=B,CE!ped-up! |!ped! ^F,=B,CE!ped-up!!ped! G,C | %309
 EG!ped-up!!ped! G,=B,DG!ped-up! |[K:bass]!ped! C,^F,G,E!ped-up!!ped! =A,,D, | %311
 E,C!ped-up!!ped! B,,=E,=F,D!ped-up! |!ped! G,,C,_D,B,!ped-up!!ped! A,,=D, | %313
 E,C!ped-up!!ped! F,,=B,,C,E,!ped-up! |!ped! ^F,,=B,,C,E,!ped-up!!ped! G,,C, | %315
 E,G,!ped-up!!ped! G,,=B,,D,G,!ped-up! |!ped! [C,,C,]2 z z GG, | DG, CC,G,C, | G,G,,C,G,, C,C,, | %319
 G,,C,, G,,G,,,C,,G,,, | C,,2!ped-up! z2 z2 | !arpeggio![G,,D,F,=B,]2 z2 z2 | %322
 !arpeggio![C,,G,,C,E,]2[K:treble]!ped! [CEG]2 !^!!fermata![ceg]2!ped-up! |] %323
V:3
 x6 | x6 | x6 | x6 | x6 | x6 | x6 | x6 | x6 | x6 | x6 | x6 | x6 | x6 | x6 | x6 |[K:treble] x6 | %17
 x6 | B, x x4 | x6 | =A, x x4 | x6 | _A, x x4 | x6 | x6 | x6 | x6 | x6 | x6 | x6 | x4[K:bass] x2 | %31
 x6 | x6 | x6 | x6 | x6 | x6 | x6 | x6 | x6 | x6 | x6 | x6 | x6 | x6 | x6 |[K:treble] x6 | %47
 _D2 z D D2 | _D6- | D6 | _D2 z D D2 | _D6 | x6 | x6 | x6 | x6 | x6 | x6 | x6 | x6 | x6 | x6 | x6 | %63
[K:bass] x6 | x6 | x6 | x6 | x6 | x6 | x6 | x6 | x6 |[K:treble] x6 | x6 | x6 | x6 | x6 | x6 | %78
[K:bass] x6 | x6 | x6 | x6 | x6 | x6 | x6 | x6 | x6 | x6 | x6 |[K:treble] C6- | C6- | C6- | C4 z2 | %93
[K:bass] C,6- | C,6- | C,6- | C,6 | x6 | x6 | x6 | x6 | x6 | x6 | x6 | x6 | x6 | x6 | x6 | x6 | %109
 x6 | x6 | x6 | x6 | x6 | x6 ||[K:C] x6 | x6 | x6 | x6 | x6 | x6 | x6 | E,6 | x6 | x6 | x6 | x6 | %127
 x6 | x6 | x6 | E,6 | x6 | x6 | x6 | x6 | x6 | x6 | x6 | .[^F,C]2 .[F,C]2 .[F,C]2 | %139
 .[^F,C]2 .[F,C]2 .[F,C]2 | .[=F,C]2 .[F,C]2 .[F,C]2 | x6 | x6 | x6 | x6 | x6 | x6 | x6 | x6 | %149
[K:treble] x!8va(! x5!8va)! | x6 | x!8va(! x5!8va)! | x6 | x6 | x6 | x6 | x6 | x6 | x6 | %159
[K:bass] x6 | x6 | x6 | x6 | x6 | x6 | x6 | x6 | x6 | x6 |[K:treble] x6 | x6 |[K:bass] x6 | x6 | %173
 G,,2 z2 z2 | G,,2 z2 z2 | x6 | x6 | !^![G,,,G,,]2 !^![_E,,,_E,,]2 !^![D,,,D,,]2 | %178
 !^!!fermata![C,,,C,,]6 ||[K:Ab] x6 | x6 | x6 |[K:treble] x6 | x6 |[K:bass] x6 | x6 | x6 | %187
[K:treble] x6 | x6 |[K:bass] x6 | x6 | x6 |[K:treble] x6 | x6 |[K:bass] x6 | E,,6 | x6 | %197
[K:treble] x6 | x6 ||[K:E] x6 | x6 | x6 | x6 | x6 | x6 | x6 | x6 | x6 | x6 | x6 | x6 | x6 | x6 | %213
 x6 | x6 | x6 | x6 ||[K:Ab]!8va(! x6 | x6!8va)! | x6 | x6 | x6 |!8va(! x6 | x6!8va)! | x6 | x6 | %226
 x6 |!8va(! x6 | x6!8va)! | x6 | x6 | x6 |!8va(! x6 | x6!8va)! |[K:bass] x6 | x6 | x6 | %237
[K:treble] x6 | x6 |[K:bass] x6 | x6 | x6 |[K:treble] x6 | x6 |[K:bass] x6 | x6 | x6 | %247
[K:treble] x6 | x6 |[K:bass] x6 | !arpeggio![E,,,E,,]6 | x6 |[K:treble] x6 | x6 | x6 | x6 || %256
[K:Eb][K:bass] x6 | x6 | x6 | x6 |[K:treble] x6 | x6 | x6 | x6 | x6 | x6 | x6 | x6 | x6 | x6 | %270
 G,3 G,3 |[K:bass] x6 | x6 | x6 | x6 | x6 | x6 | x6 |[K:treble] x6 | _D2 z D D2 | x6 | _D6 | %282
 _D2 z D D2 | _D6 | x6 | x6 | x6 | x6 | x6 | x6 | x6 | x6 | x6 | x6 | x6 |[K:bass] x6 | x6 | x6 | %298
 x6 | x6 | x6 | x6 | x6 | x6 |[K:treble] x6 | x6 | x6 | x6 | x6 | x6 |[K:bass] x6 | x6 | x6 | x6 | %314
 x6 | x6 | x6 | x6 | x6 | x6 | x6 | x6 | x2[K:treble] x4 |] %323
V:4
 x6 | x6 | x6 | x6 | x6 | x6 | x6 | x6 | x6 | x6 | x6 | x6 | x6 | x6 | x6 | x6 |[K:treble] x6 | %17
 x6 | x6 | x6 | x6 | x6 | x6 | x6 | x6 | x6 | x6 | x6 | x6 | x6 | x4 =FG | x6 | x6 | x6 | x6 | x6 | %36
 x6 | x6 | x6 | x6 | x6 | x6 | x6 | x6 | x6 | x6 | x6 | _g6 | f6 | _d'_gb[I:staff +1]B_dG | %50
[I:staff -1] f6 | _d'_gb[I:staff +1]B_dG | x6 | x6 | x6 | x6 | x6 | x6 | x6 | x6 | x6 | x6 | x6 | %63
 x6 | x6 | x6 | x6 | x6 | x6 | x6 | x6 | x6 | x6 | x6 | x6 | x6 | x6 | x6 | x6 | x6 | x6 | x6 | %82
 x6 | x6 | x6 | x6 | x4[I:staff -1][K:bass] x2 | x6 | x6 |[K:treble] x6 | x6 | x6 | x6 | x6 | x6 | %95
 x6 | x6 | x6 | x6 |[K:bass] x6 | x6 |[K:treble] e2 d2 c2 | =B2 A2 GF | E2 D2 C2 | =B,2 A,2 G,2 | %105
[K:bass] E,2 D,2 C,2 | =B,,2 A,,2 G,,2 | C,2 x2 x2 | x6 | x6 | x6 | x4[K:treble] x2 | x6 | x6 | %114
 x6 ||[K:C] x6 | x6 | x6 | x6 | x6 | x6 | x6 | x6 | x6 | x6 | x6 | x6 | x6 | x6 | x6 | x6 | x6 | %132
 x6 | x6 | x6 | x6 | x6 | x6 | x6 | x6 | x6 | x6 | x6 | x6 | x6 | x6 | x6 | x6 | x6 |!8va(! x6 | %150
 x6 | x6 | x6!8va)! | x6 | x6 | x6 | x6 | x6 | x6 | x6 |!8va(! x6!8va)! | x6 |!8va(! x6 | x6 | x6 | %165
 x6!8va)! | x6 | x6 | x6 | x6 | x6 | x6 | x6 | x6 | x6 | x6 | x6 | x6 | x6 ||[K:Ab] x6 | x6 | x6 | %182
 x6 | x6 | x6 | x6 | x6 | x6 | x6 | x6 | x6 | x6 | x6 | x6 | x6 | [DF]6 | x6 | x6 | x6 ||[K:E] x6 | %200
 x6 | x6 |!8va(! x6 | x6!8va)! | x6 | x6 | x6 |!8va(! x6 | x6!8va)! | x6 | x6 | x6 |!8va(! x6 | %213
 x6!8va)! | x6 | x6 | x6 ||[K:Ab]!8va(! x6 | x6!8va)! | x6 | x6 | x6 |!8va(! x6 | x6!8va)! | x6 | %225
 x6 | x6 |!8va(! x6 | x6!8va)! | x6 | x6 | x6 |!8va(! x6 | x6!8va)! | x6 | x6 | x6 |!8va(! x6 | %238
 x6!8va)! | x6 | x6 | x6 |!8va(! x6 | x6!8va)! | x6 | x6 | x6 |!8va(! x6 | x6!8va)! | x6 | [DF]6 | %251
 x6 |!8va(! x6 | x6!8va)! | x6 | x6 ||[K:Eb] x6 | x6 | x6 | x6 | x6 | x6 | x6 | x6 | x6 | x6 | x6 | %267
 x6 | x6 | x6 | x6 | x6 | x6 | x6 | x6 | x6 | x6 | x6 | x6 | x6 | f6 | _d'_gb[I:staff +1]B_dG | %282
[I:staff -1] f6 | _d'_gb[I:staff +1]B_dG | x6 | x6 | x6 | x6 | x6 | x6 | x6 | x6 | x6 | x6 | x6 | %295
 x6 | x6 | x6 | x6 | x6 | x6 | x6 | x6 | x6 | x6 | x6 | x6 | x6 | x6 | x6 | x6 | x6 | x6 | x6 | %314
 x6 | x6 | x6 | x6 | x4[I:staff -1][K:bass] x2 | x6 | x6 |[K:treble] x6 |!8va(! x6!8va)! |] %323

